X: 1
T:Corriechoillie's Welcome
M:C|
L:1/8
Q:80
C:P/M Wm. Ross
S:March
K:HP
|: e|
{g}A3/2B/2{G}A{Gdc}d|
{gef}e3/2d/2{gBd}B{G}A|
{Gdc}d3/2e/2{g}fa|  !
{fg}fe{A}ef|
{g}A3/2B/2{G}A{Gdc}d|
{gef}e3/2d/2{gBd}B3/2{G}A/2|  !
{Gdc}d3/2e/2{g}fa|
{fg}fd{gdc}d:| [|
{gf}g|  !
a3/2f/2{Gdc}df|
{gef}e3/2d/2{gBd}B{G}A|
{Gdc}d3/2e/2{g}fa|  !
{fg}fe{A}e|1 {gf}g|1
a3/2f/2{Gdc}d3/2f/2|
{gef}e3/2d/2{gBd}B{G}A|  !
{Gdc}d3/2e/2{g}fa|
{fg}fd{gdc}d|] [|
{gf}g|  !
a3/2f/2{Gdc}df|
{gef}e3/2d/2{gBd}B{G}A|
{Gdc}d3/2e/2{g}fa|  !
{fg}fe{A}e|2 f:|2
{g}A3/2B/2{G}A{Gdc}d|
{gef}e3/2d/2{gBd}B{G}A|  !
{Gdc}d3/2e/2{g}fa|
{fg}fd{gdc}d|]
